icon-themes/breeze_svg/cmd/lc_mirror.svg

<svg viewBox="0 0 24 24" xmlns="http://www.w3.org/2000/svg"><path d="m7 4v1h1v-1zm9 0v1h1v-1zm-9 2v1h-3v10h3v1h1v-1h3v-3h2v3h3v1h1v-1h3v-10h-3v-1h-1v1h-3v3h-2v-3h-3v-1zm-2 2h5v8h-5zm9 0h5v8h-5zm1 1v6h3v-6zm-4 2h2v2h-2zm-4 8v1h1v-1zm9 0v1h1v-1z" fill="#4d4d4d"/></svg>

<svg xmlns="http://www.w3.org/2000/svg" viewBox="0 0 24 24">
 <path 
     style="fill:#4d4d4d" 
     d="M 7 4 L 7 5 L 8 5 L 8 4 L 7 4 z M 16 4 L 16 5 L 17 5 L 17 4 L 16 4 z M 7 6 L 7 7 L 4 7 L 4 17 L 7 17 L 7 18 L 8 18 L 8 17 L 11 17 L 11 14 L 13 14 L 13 17 L 16 17 L 16 18 L 17 18 L 17 17 L 20 17 L 20 7 L 17 7 L 17 6 L 16 6 L 16 7 L 13 7 L 13 10 L 11 10 L 11 7 L 8 7 L 8 6 L 7 6 z M 5 8 L 10 8 L 10 16 L 5 16 L 5 8 z M 14 8 L 19 8 L 19 16 L 14 16 L 14 8 z M 15 9 L 15 15 L 18 15 L 18 9 L 15 9 z M 11 11 L 13 11 L 13 13 L 11 13 L 11 11 z M 7 19 L 7 20 L 8 20 L 8 19 L 7 19 z M 16 19 L 16 20 L 17 20 L 17 19 L 16 19 z "
     />
 </svg>
